X:53
%%pagewidth 7.5in
%%score 1 2
T:Trip and Go
M:6/8
L:1/8
K:A
V:1 clef-treble
V:2 clef-bass octave=-1
V:1
cA2 e3 & E6|cA2 e3 & E6|cA2 (e2c) & E3 E2A|B3-B3 & A3 G3|cA2 e3 & E6|
w: Trip and go, heave and ho, Up and down, to and fro; From the town
V:2
A6|A6|A,3 c2A|E6|A6|
V:1 
cA2 e3 & E6|cA2 (e2c) & E3 E2A|B3-B2G & A3 G2E|[E(A]2G) F2E|[C(A]2C) (B,2A,)|ABc [DGB]2[CA] & C3x3|
w: to the grove, Two and two* let~us rove, A may-*ing, a play* ing;* Love* hath no gain 
V:2
A6|A,3 c2A|E3-E2D|C2z z2C|F2z z2F|E3 E2E|
V:1
[E(B]3 [B)EG]2[EG]|[EA]2G (F2E)|[CA]2C (B,2A,)|ABc [EGB]2[CA] & C3 x3|[CA]3-[CA]3 ||
w:say-ing: So trip and go,* trip and go,* Mer-ri-ly trip and go.*
V:2
E3 E,2D|C2z z2C|F2z z2F|E3 E2A|A3 A,3||

